X: 20777
T: Johnny Loughran's
R: reel
M: 4/4
K: Dmajor
AFdF AdAB|AFdF efdB|AFdF ABde|1 fedf e2dB:|2 fedf e2fe||
defg a^gaf|~b3f ~a3f|defg a^gaf|bfaf (3efg fe|
defg a^gaf|~b3f ~a3f|~g3e ~f3e|dgfe dcdB||

